X:31
T:Hen Wlad fy Nhadau [Land of My Fathers] National Anthem of Wales
C:James James (1856)
H:From: Keith Davies Jones <kjones@cc.umanitoba.ca>
H:Gwlad certainly means 'land', but in the context of the anthem it means
H:'our land' ie Wales, and 'yr hen wlad' means 'the old country' ie 'home'.
H:The proper translation is as follows:
H:The old land (home) of my fathers is dear to me,
H:Land of poets and singers, great ones of renown.
H:Her brave warriors, finest patriots,
H:For freedom they lost (shed) their blood.
H:Land! Land! (Wales!) - partial am I to my Land.
H:As long as the sea is a wall to the pure beloved country
H:O may the old language (Y Gymraeg) endure.
N: Words by Evan James, but it's unclear whether this was the father
N: or the brother of the tune's composer. (Both had the same name).
Z:History notes from Keith Davies Jones
M:3/4
L:1/4
K:C
C \
| EDC | GFE | ccA/B/ | c3 | GEC | CB,C | EDD | D2G |
| GGE/F/ | GGc | ccA/B/ | c2A | GEC | DED | C3- | C3 ||
|| G3 | c3 | GEC | CB,C | D2G \
| G2E/F/ | G2c | c2A/B/ | c2A | GEC | DED | C3- | C3 ||
W:
W: Mae hen wlad fy nhadau yn annwyl i mi,
W: Gwlad beirdd a chantorion, enwogion o fri;
W: Ei gwrol rhyfelwyr, gwlad garwyr tra mad,
W: Tros ryddid collasant eu gwaed.
W:
W: Cytgan:
W: Gwlad, Gwlad, pleidiol wyf i'm gwlad!
W: Tra mor yn fur,
W: I'r bur hoff bau
W: O bydded i'r heniaith barhau.
W:
W: Hen Gymru fynyddig, paradwys y bardd,
W: Pob dyffryn, pob clogwyn, i'm golwg sydd hardd;
W: Trwy deimlad gwladgarol, mor swynol yw si
W: Ei nentydd, afonydd, i mi.
W:
W: Os treisiodd y gelyn fy ngwlad dan ei droed,
W: Mae hen iaith y Cymry mor fyw ag erioed,
W: Ni luddiwyd yr awen gan erchyll law brad,
W: Na thelyn berseiniol fy ngwlad.
